Страховая/img/svg/secStep4.svg

<svg width="112" height="112" viewBox="0 0 112 112" fill="none" xmlns="http://www.w3.org/2000/svg">
<path d="M30.3747 24.8159C48.5118 14.7612 68.5648 16.9461 84.091 32.4723C99.6172 47.9985 97.4012 73.0116 81.8313 88.5815C66.2614 104.151 32.1603 83.7792 16.6341 68.253C1.10791 52.7268 9.93857 36.1451 30.3747 24.8159Z" fill="#E7F1F2"/>
<path d="M56.2363 44.3041C54.5723 46.4801 52.8016 48.8481 50.9243 51.4081C49.047 53.9681 47.4683 56.5921 46.1883 59.2801H56.2363V44.3041ZM65.5803 32.6561V59.2801H70.3163V67.0881H65.5803V77.0081H56.2363V67.0881H37.1003V60.1121C38.039 58.2347 39.2123 56.1227 40.6203 53.7761C42.0283 51.3867 43.5856 48.9547 45.2923 46.4801C47.0416 43.9627 48.8763 41.5094 50.7963 39.1201C52.7163 36.7307 54.6363 34.5761 56.5563 32.6561H65.5803Z" fill="#5FB5BF"/>
</svg>

<svg width="112" height="112" fill="none" xmlns="http://www.w3.org/2000/svg"><path d="M30.375 24.816c18.137-10.055 38.19-7.87 53.716 7.656 15.526 15.526 13.31 40.54-2.26 56.11-15.57 15.569-49.67-4.803-65.197-20.329C1.108 52.727 9.94 36.145 30.374 24.816z" fill="#E7F1F2"/><path d="M56.236 44.304a442.962 442.962 0 00-5.312 7.104c-1.877 2.56-3.456 5.184-4.736 7.872h10.048V44.304zm9.344-11.648V59.28h4.736v7.808H65.58v9.92h-9.344v-9.92H37.1v-6.976c.939-1.877 2.112-3.99 3.52-6.336a121.68 121.68 0 014.672-7.296c1.75-2.517 3.584-4.97 5.504-7.36 1.92-2.39 3.84-4.544 5.76-6.464h9.024z" fill="#5FB5BF"/></svg>
